X:1
T:Buxtehude - Aria:  La Capricciosa in G Minor.
%%score { ( 1 2 4 ) | ( 3 5 ) }
L:1/8
Q:1/4=100
M:4/4
K:G
V:1 treble nm="Harpsichord" snm="Hch."
V:2 treble 
V:4 treble 
V:3 bass 
V:5 bass 
V:1
"^Partita 15" d3 g/=f/ e2 ag | fedc MB2 GA | BPc d2 Mc2 B2 | TA4 G4 ::[Q:1/4=100] B3 Md c4 | %5
 B2 A2 G3 A | BPc d2 c2 B2 | A4 G4[Q:1/4=90][Q:1/4=80][Q:1/4=70] :| %8
V:2
 z A B2 cGcB | AGFA GDEC | DA, B,2 E^F G2- | G3 F G4 :: z D G2- GE F2- | F E2 P^D E3 F | %6
 G2 AMB EPF G2 | z B,PCD [B,D]4 :| %8
V:3
 G4 x4 | x8 | z2 z G, A,A,,B,,C, | D,C,, D,,2 G,,D,G,G,, :: G,3 MB, A,4 | G,2 F,2 E,2 E,2- | %6
 E,2 F,G, A,2 G,2- | G,2 F,2 G,2 PB,,D, :| %8
V:4
 x8 | x8 | x2 z =F x4 | x8 :: x8 | x8 | x8 | x8 :| %8
V:5
 x8 | x8 | x8 | x8 :: x4 z2 z A,, | B,,4 z E,,3 | z4 z A,,B,,C, | D,2 D,,2 z G,,3 :| %8

